X:350
M:C|
L:1/8
K:B_
d|BFDF BFDF|ECC=B cGGA|BFDF BFDF|ECFD DB,B,:|
cBcd cBGg|fBgB aBbB|cBcd B/B/B ~B||

